X:222
T:Anacreon in Heav'n. CJF.179
O:england
M:6/4
L:1/4
Q:80
S: C.J.Fox MS, 1829/33, Beverley,E.Yorks.
R:Air
A:East Yorkshire
B:Kidson Coll.Mitchell Lib.M1805
N:Note marked "" is f/4 in MS. I suspect we will find similar tunes in
N:USA MSs. - PJH...sounds more like 3/4 to me, 18thC opera etc.. CGP.
K:D
D/D|DFAd2f/e/|dFGA2A|fedc>Bc|d2A/G/F/D3/2D|\
DFAddf|dFGA2A/A/|f>edc2B/c/|d<dAFD""f/2|
f<gaa2g/f/|efgg2(f/e/)|fedc>Bc|dFGA2A/A/|dddB<BB|\
eg/f/ e/d/{d}c2A|d>e f/g/afd|d/e/fe/d/d2A/A/|\
dddBBB|e>fe{d}c2A|
d>e f/g/afd|d<fe/d/d3||
